X:1
T:Nun komm, der Heiden Heiland
T:Satz: Melchior Vulpius 1609
T:Nun komm, der Heiden Heiland
T:CPDL   —   Creative Commons Attribution Non Commercial 3.0
C:Satz: Melchior Vulpius 1609
Z:CPDL   —   Creative Commons Attribution Non Commercial 3.0
%%score [ ( 1 2 ) 3 4 ]
L:1/8
M:4/4
K:D
V:1 treble nm="Sopran\nAlt"
V:2 treble 
V:3 treble-8 nm="Tenor"
V:4 bass nm="Bass"
V:1
 B2 B2 A2 d2 | cB c2 B4 | B2 d2 e3 d | e2 f2 d4 | d2 e2 f2 d2 | e2 dc B4 | B2 B2 A2 d2 | %7
w: 1. Nun komm, der Hei-|den _ Hei- land,|der Jung- frau- en|Kind er- kannt,|dass sich wun- der|al- le * Welt,|Gott solch Ge- burt|
w: 2. Dein Krip- pen glänzt|hell _ und klar,|die Nacht gibt ein|neu' Licht dar,|Dun- kel muss nit|kom- men * drein,|der Glaub' bleibt im-|
w: 3. Lob sei Gott dem|Va- * ter g'tan,|Lob sei Gott seim|ein'- gen Sohn,|Lob sei Gott, dem|Heil'- gen * Geist,|im- mer und in|
 cB c2 B4 |] %8
w: ihm _ be- stellt.|
w: mer _ im Schein.|
w: E- * wig- keit.|
V:2
 F2 F2 F2 A2- | AF A2 F4 | F2 B2 B3 B | c2 c2 B4 | F2 A2 A2 B2 | B3 ^A B4 | F2 G2 F2 A2 | %7
 AF A2 F4 |] %8
V:3
 d2 d2 c2 f2 | ed c2 ^d4 | =d2 f2 g3 f | a2 a2 f4 | B2 c2 d2 d2 | g2 f2 f4 | ^d2 e2 c2 f2 | %7
w: 1. Nun komm, der Hei-|den _ Hei- land,|der Jung- frau- en|Kind er- kannt,|dass sich wun- der|al- le Welt,|Gott solch Ge- burt|
w: 2. Dein Krip- pen glänzt|hell _ und klar,|die Nacht gibt ein|neu' Licht dar,|Dun- kel muss nit|kom- men drein,|der Glaub' bleibt im-|
w: 3. Lob sei Gott dem|Va- * ter g'tan,|Lob sei Gott seim|ein'- gen Sohn,|Lob sei Gott, dem|Heil'- gen Geist,|im- mer und in|
 ed c2 ^d4 |] %8
w: ihm _ be- stellt.|
w: mer _ im Schein.|
w: E- * wig- keit.|
V:4
 B,,2 B,,2 F,2 D,2 | A,B, F,2 B,,4 | B,2 B,2 E,3 B, | A,2 F,2 B,4 | B,2 A,2 D,2 G,2 | %5
 E,2 F,2 B,,4 | B,2 E,2 F,2 D,2 | A,B, F,2 B,,4 |] %8

